public/images/ellipsis-app-logo.svg

<svg viewBox="0 0 192 192" xmlns="http://www.w3.org/2000/svg"><circle cx="96" cy="96" fill="#026464" r="96"/><g fill="#fff"><path d="m96 148.72a52.73 52.73 0 0 1 -52.18-45.22h52.18v-15h-52.18a52.72 52.72 0 0 1 83.78-34.71l11-11a68.11 68.11 0 0 0 -110.31 45.71 67.24 67.24 0 0 0 0 15 68.11 68.11 0 0 0 110.28 45.68l-11-11a52.49 52.49 0 0 1 -31.57 10.54z"/><path d="m148.72 96a52.49 52.49 0 0 1 -10.42 31.46.19.19 0 0 0 0 .25l10.7 10.7a.2.2 0 0 0 .3 0 68.07 68.07 0 0 0 0-84.79.2.2 0 0 0 -.3 0l-10.68 10.66a.19.19 0 0 0 0 .25 52.49 52.49 0 0 1 10.4 31.47z" opacity=".2"/></g></svg>

<svg id="Layer_1" data-name="Layer 1" xmlns="http://www.w3.org/2000/svg" viewBox="0 0 192 192"><defs><style>.cls-1{fill:#026464;}.cls-2,.cls-3{fill:#fff;}.cls-3{opacity:0.2;}</style></defs><title>Logos Gallery</title><circle class="cls-1" cx="96" cy="96" r="96"/><g id="_Group_" data-name="&lt;Group&gt;"><path id="_Path_" data-name="&lt;Path&gt;" class="cls-2" d="M96,148.72A52.73,52.73,0,0,1,43.82,103.5H96v-15H43.82A52.72,52.72,0,0,1,127.6,53.79l11-11A68.11,68.11,0,0,0,28.29,88.5a67.24,67.24,0,0,0,0,15,68.11,68.11,0,0,0,110.28,45.68l-11-11A52.49,52.49,0,0,1,96,148.72Z"/><path id="_Path_2" data-name="&lt;Path&gt;" class="cls-3" d="M148.72,96a52.49,52.49,0,0,1-10.42,31.46.19.19,0,0,0,0,.25L149,138.41a.2.2,0,0,0,.3,0,68.07,68.07,0,0,0,0-84.79.2.2,0,0,0-.3,0L138.32,64.28a.19.19,0,0,0,0,.25A52.49,52.49,0,0,1,148.72,96Z"/></g></svg>
